X: 269
T: Pioneers of Glengarry
C: Ian R. MacLeod 1994
M:6/8
R:Slow March
L:1/8
Z:Alf Warnock - alf0@rogers.com
K:D
A,|\
"D"D3/2E/2F "A7"EDF|"D"A3/2B/2d BAF|"G"B3/2c/2d "D"AFD|"E7"E3/2F/2D "A7"C2A,|"D"D3/2E/2F "A7"EDF|
"D"A3/2B/2d BAF|[1 "G"B3/2c/2d "A7"AFE|"D"D3 D2:|[2 "G"B3/2c/2d "A7"edc|"D"d3 d2 ||
A| "D"d3/2e/2f fed|"G"B3/2c/2d d2B|"D"A3/2B/2d "Bm"BAF|"E7"E3/2F/2D "A7"C2A|
"D"d3/2e/2f fed|"G"B3/2c/2d d2B|"D"A3/2B/2d "Bm"BAF|[1 "A7"E3/2F/2E "D"D2:|[2 "A7"E3/2D/2C "D"D2|]
